icons/hq-fill.svg

<svg xmlns="http://www.w3.org/2000/svg" width="24" height="24" fill="none"><g clip-path="url(#a)"><g><path fill="#121212" d="M3 3H21C21.2652 3 21.5196 3.10536 21.7071 3.29289C21.8946 3.48043 22 3.73478 22 4V20C22 20.2652 21.8946 20.5196 21.7071 20.7071C21.5196 20.8946 21.2652 21 21 21H3C2.73478 21 2.48043 20.8946 2.29289 20.7071C2.10536 20.5196 2 20.2652 2 20V4C2 3.73478 2.10536 3.48043 2.29289 3.29289C2.48043 3.10536 2.73478 3 3 3ZM7.5 11.25V9H6V15H7.5V12.75H9.5V15H11V9H9.5V11.25H7.5ZM16.25 15H17C17.2652 15 17.5196 14.8946 17.7071 14.7071C17.8946 14.5196 18 14.2652 18 14V10C18 9.73478 17.8946 9.48043 17.7071 9.29289C17.5196 9.10536 17.2652 9 17 9H14C13.7348 9 13.4804 9.10536 13.2929 9.29289C13.1054 9.48043 13 9.73478 13 10V14C13 14.2652 13.1054 14.5196 13.2929 14.7071C13.4804 14.8946 13.7348 15 14 15H14.75V16.5H16.25V15ZM14.5 10.5H16.5V13.5H14.5V10.5Z"/></g></g><defs><clipPath id="a"><rect width="24" height="24" fill="white"/></clipPath></defs></svg>

<svg width="24" height="24" fill="none" xmlns="http://www.w3.org/2000/svg"><g clip-path="url(#a)"><path d="M3 3h18a1 1 0 0 1 1 1v16a1 1 0 0 1-1 1H3a1 1 0 0 1-1-1V4a1 1 0 0 1 1-1Zm4.5 8.25V9H6v6h1.5v-2.25h2V15H11V9H9.5v2.25h-2ZM16.25 15H17a1 1 0 0 0 1-1v-4a1 1 0 0 0-1-1h-3a1 1 0 0 0-1 1v4a1 1 0 0 0 1 1h.75v1.5h1.5V15Zm-1.75-4.5h2v3h-2v-3Z" /></g><defs><clipPath id="a"><path fill="#fff" d="M0 0h24v24H0z"/></clipPath></defs></svg>
